X: 34609
T: Road East, The
R: waltz
M: 3/4
K: Eminor
EA2- A3|Bc B4|AG E4-|E6|
Be2- e3|fg f4|ed B4-|B6|
B g4 a|{b}ag f4|e2f B3-|B6|
BA G4|AB F4|D2 E4-|E6||
B g4 a|{b}ag f4|e2f B3-|B6|
B b4 a|g4- g2|ga f4-|f6|
gf e4|fg f4|e2f B3-|B6|
BA G4|AB F4|E2 E4-|E6||

